ElGeneral/devices/64/media-optical-data.svg

<?xml version="1.0" encoding="UTF-8" standalone="no"?>
<!-- Created with Inkscape (http://www.inkscape.org/) -->

<svg
   xmlns:sketch="http://www.bohemiancoding.com/sketch/ns"
   xmlns:osb="http://www.openswatchbook.org/uri/2009/osb"
   xmlns:dc="http://purl.org/dc/elements/1.1/"
   xmlns:cc="http://creativecommons.org/ns#"
   xmlns:rdf="http://www.w3.org/1999/02/22-rdf-syntax-ns#"
   xmlns:svg="http://www.w3.org/2000/svg"
   xmlns="http://www.w3.org/2000/svg"
   xmlns:xlink="http://www.w3.org/1999/xlink"
   xmlns:sodipodi="http://sodipodi.sourceforge.net/DTD/sodipodi-0.dtd"
   xmlns:inkscape="http://www.inkscape.org/namespaces/inkscape"
   width="48"
   height="48"
   id="svg5453"
   version="1.1"
   inkscape:version="0.91 r13725"
   sodipodi:docname="media-optical-data.svg">
  <defs
     id="defs5455">
    <linearGradient
       y2="506.798"
       x2="409.57144"
       y1="540.79797"
       x1="409.57144"
       gradientTransform="matrix(1.5292812,0,0,1.529412,-592.82053,-769.10295)"
       gradientUnits="userSpaceOnUse"
       id="linearGradient3834"
       xlink:href="#linearGradient4422-4"
       inkscape:collect="always" />
    <linearGradient
       id="linearGradient4207"
       osb:paint="gradient">
      <stop
         style="stop-color:#3498db;stop-opacity:1;"
         offset="0"
         id="stop3371" />
      <stop
         style="stop-color:#3498db;stop-opacity:0;"
         offset="1"
         id="stop3373" />
    </linearGradient>
    <linearGradient
       inkscape:collect="always"
       xlink:href="#linearGradient4355"
       id="linearGradient4447"
       x1="31.838835"
       y1="40.485283"
       x2="32"
       y2="24"
       gradientUnits="userSpaceOnUse" />
    <linearGradient
       id="linearGradient4422-4">
      <stop
         id="stop4424-3"
         offset="0"
         style="stop-color:#d1d7df;stop-opacity:1" />
      <stop
         id="stop4426-4"
         offset="1"
         style="stop-color:#e0e5e7;stop-opacity:1" />
    </linearGradient>
    <linearGradient
       id="linearGradient4355"
       inkscape:collect="always">
      <stop
         id="stop4357"
         offset="0"
         style="stop-color:#3d434a;stop-opacity:1" />
      <stop
         id="stop4359"
         offset="1"
         style="stop-color:#5f6974;stop-opacity:1" />
    </linearGradient>
  </defs>
  <sodipodi:namedview
     id="base"
     pagecolor="#5a5a5a"
     bordercolor="#666666"
     borderopacity="1.0"
     inkscape:pageopacity="0"
     inkscape:pageshadow="2"
     inkscape:zoom="5.6568546"
     inkscape:cx="-12.472675"
     inkscape:cy="33.998411"
     inkscape:document-units="px"
     inkscape:current-layer="layer1"
     showgrid="false"
     fit-margin-top="0"
     fit-margin-left="0"
     fit-margin-right="0"
     fit-margin-bottom="0"
     inkscape:window-width="1366"
     inkscape:window-height="633"
     inkscape:window-x="0"
     inkscape:window-y="33"
     inkscape:window-maximized="1"
     inkscape:showpageshadow="false"
     borderlayer="true"
     showguides="false"
     inkscape:snap-bbox="true"
     inkscape:object-nodes="true"
     inkscape:snap-global="true"
     showborder="false">
    <inkscape:grid
       type="xygrid"
       id="grid4063"
       originx="7.9999866px"
       originy="7.9999772px" />
    <sodipodi:guide
       position="0,0"
       orientation="0,64"
       id="guide4196" />
    <sodipodi:guide
       position="64,0"
       orientation="-64,0"
       id="guide4198" />
    <sodipodi:guide
       position="64,64"
       orientation="0,-64"
       id="guide4200" />
    <sodipodi:guide
       position="6,58"
       orientation="52,0"
       id="guide4202" />
    <sodipodi:guide
       position="6,6"
       orientation="0,52"
       id="guide4204" />
    <sodipodi:guide
       position="58,6"
       orientation="-52,0"
       id="guide4206" />
    <sodipodi:guide
       position="58,58"
       orientation="0,-52"
       id="guide4208" />
  </sodipodi:namedview>
  <metadata
     id="metadata5458">
    <rdf:RDF>
      <cc:Work
         rdf:about="">
        <dc:format>image/svg+xml</dc:format>
        <dc:type
           rdf:resource="http://purl.org/dc/dcmitype/StillImage" />
        <dc:title></dc:title>
      </cc:Work>
    </rdf:RDF>
  </metadata>
  <g
     inkscape:label="Capa 1"
     inkscape:groupmode="layer"
     id="layer1"
     transform="translate(-376.57144,-507.79797)">
    <g
       id="g4161"
       transform="matrix(0.92307692,0,0,0.92307692,23.428574,48.292153)">
      <path
         id="rect4146"
         transform="translate(376.57144,491.79797)"
         d="M 32,6 C 17.59725,6 6.0019531,17.59602 6.0019531,32 6.0019531,46.40398 17.59725,58 32,58 46.40275,58 57.998047,46.40398 57.998047,32 57.998047,17.59602 46.40275,6 32,6 Z m 0,23 c 1.662,0 3,1.338 3,3 0,1.662 -1.338,3 -3,3 -1.662,0 -3,-1.338 -3,-3 0,-1.662 1.338,-3 3,-3 z"
         style="fill:url(#linearGradient3834);fill-opacity:1;stroke:none"
         inkscape:connector-curvature="0" />
      <path
         id="rect4270"
         transform="translate(376.57144,491.79797)"
         d="m 32,23 c -4.986,0 -9,4.014 -9,9 0,4.986 4.014,9 9,9 4.986,0 9,-4.014 9,-9 0,-4.986 -4.014,-9 -9,-9 z m 0,1 a 8,8 0 0 1 8,8 8,8 0 0 1 -8,8 8,8 0 0 1 -8,-8 8,8 0 0 1 8,-8 z m 0,1 a 7,7 0 0 0 -7,7 7,7 0 0 0 7,7 7,7 0 0 0 7,-7 7,7 0 0 0 -7,-7 z m 0,4 c 1.662,0 3,1.338 3,3 0,1.662 -1.338,3 -3,3 -1.662,0 -3,-1.338 -3,-3 0,-1.662 1.338,-3 3,-3 z"
         style="opacity:0.79100001;fill:url(#linearGradient4447);fill-opacity:1;stroke:none"
         inkscape:connector-curvature="0" />
      <g
         style="fill:#6c747d;fill-opacity:1"
         inkscape:label="Capa 1"
         id="layer1-1"
         transform="matrix(0.9125,0,0,0.9125,418.36732,-429.59443)">
        <g
           transform="matrix(0.90537551,0,0,0.90537551,-365.91682,562.06022)"
           id="layer1-0"
           inkscape:label="Capa 1"
           style="fill:#6c747d;fill-opacity:1;stroke:#4f96d1;stroke-opacity:1" />
        <g
           style="fill:#6c747d;fill-opacity:1"
           transform="matrix(0.90853357,0,0,0.90853357,-364.12567,559.9656)"
           id="layer1-00"
           inkscape:label="Capa 1">
          <g
             style="fill:#6c747d;fill-opacity:1"
             transform="translate(5.05585,-5.251147)"
             id="layer1-4"
             inkscape:label="Capa 1">
            <g
               transform="translate(-11.317,5.8824915)"
               id="layer1-9"
               inkscape:label="Capa 1"
               style="fill:#6c747d;fill-opacity:1;stroke:#000000;stroke-opacity:0.8">
              <g
                 transform="matrix(0.7863692,0,0,0.78394543,93.325829,112.35451)"
                 id="g4187"
                 style="fill:#6c747d;fill-opacity:1;stroke:none;stroke-opacity:1">
                <path
                   style="fill:#6c747d;fill-opacity:1;stroke:none;stroke-width:0.07109061;stroke-opacity:1"
                   sketch:type="MSShapeGroup"
                   id="Documents"
                   d="m 408.99594,530.99649 -5.24403,6.7328 c -0.98326,1.2624 -0.708,3.5111 0.5505,4.4974 1.25852,0.98629 3.50028,0.71019 4.48354,-0.55221 l 5.24403,-6.73281 0.65549,-0.8416 c 0.65551,-0.8416 0.47201,-2.34073 -0.36699,-2.99826 -0.83901,-0.65753 -2.33352,-0.47347 -2.98902,0.36814 l -0.65551,0.8416 -3.93302,5.0496 -0.6555,0.8416 c -0.32776,0.4208 -0.236,1.17037 0.1835,1.49914 0.4195,0.32875 1.16676,0.23673 1.49451,-0.18407 l 4.58852,-5.89121 0.83901,0.65753 -4.58852,5.8912 c -0.65551,0.84161 -2.15002,1.02568 -2.98902,0.36814 -0.83901,-0.65753 -1.02252,-2.15666 -0.36702,-2.99826 l 0.65551,-0.8416 4.58853,-5.8912 c 0.98325,-1.26241 3.22501,-1.5385 4.48353,-0.55221 1.25851,0.98629 1.53377,3.23499 0.55051,4.49739 l -0.6555,0.84161 -5.24403,6.73279 c -1.31102,1.68321 -4.30004,2.05135 -5.97805,0.73629 -1.67801,-1.31507 -2.04502,-4.31332 -0.73401,-5.99653 l 5.24403,-6.7328 0.83901,0.65753 0,0 z"
                   inkscape:connector-curvature="0" />
              </g>
            </g>
          </g>
        </g>
      </g>
    </g>
  </g>
</svg>

<?xml version="1.0" encoding="UTF-8" standalone="no"?>
<!-- Created with Inkscape (http://www.inkscape.org/) -->

<svg
   xmlns:sketch="http://www.bohemiancoding.com/sketch/ns"
   xmlns:osb="http://www.openswatchbook.org/uri/2009/osb"
   xmlns:dc="http://purl.org/dc/elements/1.1/"
   xmlns:cc="http://creativecommons.org/ns#"
   xmlns:rdf="http://www.w3.org/1999/02/22-rdf-syntax-ns#"
   xmlns:svg="http://www.w3.org/2000/svg"
   xmlns="http://www.w3.org/2000/svg"
   xmlns:xlink="http://www.w3.org/1999/xlink"
   xmlns:sodipodi="http://sodipodi.sourceforge.net/DTD/sodipodi-0.dtd"
   xmlns:inkscape="http://www.inkscape.org/namespaces/inkscape"
   width="64"
   height="64"
   id="svg5453"
   version="1.1"
   inkscape:version="0.91 r13725"
   sodipodi:docname="media-optical-data.svg">
  <defs
     id="defs5455">
    <linearGradient
       y2="506.798"
       x2="409.57144"
       y1="540.79797"
       x1="409.57144"
       gradientTransform="matrix(1.5292812,0,0,1.529412,-592.82053,-769.10295)"
       gradientUnits="userSpaceOnUse"
       id="linearGradient3834"
       xlink:href="#linearGradient4422-4"
       inkscape:collect="always" />
    <linearGradient
       id="linearGradient4207"
       osb:paint="gradient">
      <stop
         style="stop-color:#3498db;stop-opacity:1;"
         offset="0"
         id="stop3371" />
      <stop
         style="stop-color:#3498db;stop-opacity:0;"
         offset="1"
         id="stop3373" />
    </linearGradient>
    <linearGradient
       inkscape:collect="always"
       xlink:href="#linearGradient4355"
       id="linearGradient4447"
       x1="31.838835"
       y1="40.485283"
       x2="32"
       y2="24"
       gradientUnits="userSpaceOnUse" />
    <linearGradient
       id="linearGradient4422-4">
      <stop
         id="stop4424-3"
         offset="0"
         style="stop-color:#d1d7df;stop-opacity:1" />
      <stop
         id="stop4426-4"
         offset="1"
         style="stop-color:#e0e5e7;stop-opacity:1" />
    </linearGradient>
    <linearGradient
       id="linearGradient4355"
       inkscape:collect="always">
      <stop
         id="stop4357"
         offset="0"
         style="stop-color:#3d434a;stop-opacity:1" />
      <stop
         id="stop4359"
         offset="1"
         style="stop-color:#5f6974;stop-opacity:1" />
    </linearGradient>
  </defs>
  <sodipodi:namedview
     id="base"
     pagecolor="#5a5a5a"
     bordercolor="#666666"
     borderopacity="1.0"
     inkscape:pageopacity="0"
     inkscape:pageshadow="2"
     inkscape:zoom="5.6568546"
     inkscape:cx="21.91039"
     inkscape:cy="33.998411"
     inkscape:document-units="px"
     inkscape:current-layer="layer1"
     showgrid="false"
     fit-margin-top="0"
     fit-margin-left="0"
     fit-margin-right="0"
     fit-margin-bottom="0"
     inkscape:window-width="1366"
     inkscape:window-height="642"
     inkscape:window-x="0"
     inkscape:window-y="33"
     inkscape:window-maximized="1"
     inkscape:showpageshadow="false"
     borderlayer="true"
     showguides="false"
     inkscape:snap-bbox="true"
     inkscape:object-nodes="true"
     inkscape:snap-global="true"
     showborder="false">
    <inkscape:grid
       type="xygrid"
       id="grid4063"
       originx="7.9999866px"
       originy="7.9999772px" />
    <sodipodi:guide
       position="0,0"
       orientation="0,64"
       id="guide4196" />
    <sodipodi:guide
       position="64,0"
       orientation="-64,0"
       id="guide4198" />
    <sodipodi:guide
       position="64,64"
       orientation="0,-64"
       id="guide4200" />
    <sodipodi:guide
       position="6,58"
       orientation="52,0"
       id="guide4202" />
    <sodipodi:guide
       position="6,6"
       orientation="0,52"
       id="guide4204" />
    <sodipodi:guide
       position="58,6"
       orientation="-52,0"
       id="guide4206" />
    <sodipodi:guide
       position="58,58"
       orientation="0,-52"
       id="guide4208" />
  </sodipodi:namedview>
  <metadata
     id="metadata5458">
    <rdf:RDF>
      <cc:Work
         rdf:about="">
        <dc:format>image/svg+xml</dc:format>
        <dc:type
           rdf:resource="http://purl.org/dc/dcmitype/StillImage" />
        <dc:title />
      </cc:Work>
    </rdf:RDF>
  </metadata>
  <g
     inkscape:label="Capa 1"
     inkscape:groupmode="layer"
     id="layer1"
     transform="translate(-376.57144,-491.79797)">
    <path
       style="fill:url(#linearGradient3834);fill-opacity:1.0;stroke:none"
       d="M 32 6 C 17.59725 6 6.0019531 17.59602 6.0019531 32 C 6.0019531 46.40398 17.59725 58 32 58 C 46.40275 58 57.998047 46.40398 57.998047 32 C 57.998047 17.59602 46.40275 6 32 6 z M 32 29 C 33.662 29 35 30.338 35 32 C 35 33.662 33.662 35 32 35 C 30.338 35 29 33.662 29 32 C 29 30.338 30.338 29 32 29 z "
       transform="translate(376.57144,491.79797)"
       id="rect4146" />
    <path
       style="fill:url(#linearGradient4447);fill-opacity:1;stroke:none;opacity:0.791"
       d="M 32 23 C 27.014 23 23 27.014 23 32 C 23 36.986 27.014 41 32 41 C 36.986 41 41 36.986 41 32 C 41 27.014 36.986 23 32 23 z M 32 24 A 8 8 0 0 1 40 32 A 8 8 0 0 1 32 40 A 8 8 0 0 1 24 32 A 8 8 0 0 1 32 24 z M 32 25 A 7 7 0 0 0 25 32 A 7 7 0 0 0 32 39 A 7 7 0 0 0 39 32 A 7 7 0 0 0 32 25 z M 32 29 C 33.662 29 35 30.338 35 32 C 35 33.662 33.662 35 32 35 C 30.338 35 29 33.662 29 32 C 29 30.338 30.338 29 32 29 z "
       transform="translate(376.57144,491.79797)"
       id="rect4270" />
    <g
       transform="matrix(0.9125,0,0,0.9125,418.36732,-429.59443)"
       id="layer1-1"
       inkscape:label="Capa 1"
       style="fill:#6c747d;fill-opacity:1">
      <g
         style="fill:#6c747d;fill-opacity:1;stroke:#4f96d1;stroke-opacity:1"
         inkscape:label="Capa 1"
         id="layer1-0"
         transform="matrix(0.90537551,0,0,0.90537551,-365.91682,562.06022)" />
      <g
         inkscape:label="Capa 1"
         id="layer1-00"
         transform="matrix(0.90853357,0,0,0.90853357,-364.12567,559.9656)"
         style="fill:#6c747d;fill-opacity:1">
        <g
           inkscape:label="Capa 1"
           id="layer1-4"
           transform="translate(5.05585,-5.251147)"
           style="fill:#6c747d;fill-opacity:1">
          <g
             style="fill:#6c747d;fill-opacity:1;stroke:#000000;stroke-opacity:0.8"
             inkscape:label="Capa 1"
             id="layer1-9"
             transform="translate(-11.317,5.8824915)">
            <g
               style="fill:#6c747d;fill-opacity:1;stroke:none;stroke-opacity:1"
               id="g4187"
               transform="matrix(0.7863692,0,0,0.78394543,93.325829,112.35451)">
              <path
                 inkscape:connector-curvature="0"
                 d="m 408.99594,530.99649 -5.24403,6.7328 c -0.98326,1.2624 -0.708,3.5111 0.5505,4.4974 1.25852,0.98629 3.50028,0.71019 4.48354,-0.55221 l 5.24403,-6.73281 0.65549,-0.8416 c 0.65551,-0.8416 0.47201,-2.34073 -0.36699,-2.99826 -0.83901,-0.65753 -2.33352,-0.47347 -2.98902,0.36814 l -0.65551,0.8416 -3.93302,5.0496 -0.6555,0.8416 c -0.32776,0.4208 -0.236,1.17037 0.1835,1.49914 0.4195,0.32875 1.16676,0.23673 1.49451,-0.18407 l 4.58852,-5.89121 0.83901,0.65753 -4.58852,5.8912 c -0.65551,0.84161 -2.15002,1.02568 -2.98902,0.36814 -0.83901,-0.65753 -1.02252,-2.15666 -0.36702,-2.99826 l 0.65551,-0.8416 4.58853,-5.8912 c 0.98325,-1.26241 3.22501,-1.5385 4.48353,-0.55221 1.25851,0.98629 1.53377,3.23499 0.55051,4.49739 l -0.6555,0.84161 -5.24403,6.73279 c -1.31102,1.68321 -4.30004,2.05135 -5.97805,0.73629 -1.67801,-1.31507 -2.04502,-4.31332 -0.73401,-5.99653 l 5.24403,-6.7328 0.83901,0.65753 0,0 z"
                 id="Documents"
                 sketch:type="MSShapeGroup"
                 style="fill:#6c747d;fill-opacity:1;stroke:none;stroke-width:0.07109061;stroke-opacity:1" />
            </g>
          </g>
        </g>
      </g>
    </g>
  </g>
</svg>
